build/img/icons/vk.svg

<svg width="32" height="32" fill="none" xmlns="http://www.w3.org/2000/svg">
    <path d="M20.912 0h-9.823C2.125 0 0 2.125 0 11.089v9.823c0 8.964 2.125 11.089 11.089 11.089h9.823c8.964 0 11.089-2.125 11.089-11.089v-9.823C32.001 2.125 29.855 0 20.912 0zm4.922 22.828h-2.323c-.88 0-1.151-.698-2.734-2.302-1.375-1.333-1.984-1.51-2.323-1.51-.479 0-.615.135-.615.792v2.099c0 .563-.177.901-1.667.901-2.464 0-5.198-1.49-7.115-4.266-2.891-4.068-3.682-7.115-3.682-7.745 0-.339.135-.656.786-.656h2.328c.589 0 .813.271 1.042.901 1.151 3.323 3.068 6.234 3.859 6.234.292 0 .427-.135.427-.88v-3.432c-.089-1.583-.922-1.719-.922-2.281 0-.271.224-.542.583-.542h3.661c.495 0 .677.271.677.854v4.63c0 .5.224.677.359.677.292 0 .542-.177 1.083-.719 1.672-1.875 2.87-4.766 2.87-4.766.156-.339.427-.656 1.016-.656h2.328c.698 0 .854.359.698.859-.292 1.354-3.141 5.375-3.141 5.375-.245.406-.339.583 0 1.036.25.339 1.063 1.042 1.604 1.672.995 1.13 1.76 2.078 1.964 2.734.229.651-.109.99-.766.99l.003.001z" fill="#fff"/>
</svg>

<svg width="32" height="32" viewBox="0 0 32 32" fill="none" xmlns="http://www.w3.org/2000/svg">
<path d="M20.912 0H11.089C2.125 0 0 2.125 0 11.089V20.912C0 29.876 2.125 32.001 11.089 32.001H20.912C29.876 32.001 32.001 29.876 32.001 20.912V11.089C32.001 2.125 29.855 0 20.912 0ZM25.834 22.828H23.511C22.631 22.828 22.36 22.13 20.777 20.526C19.402 19.193 18.793 19.016 18.454 19.016C17.975 19.016 17.839 19.151 17.839 19.808V21.907C17.839 22.47 17.662 22.808 16.172 22.808C13.708 22.808 10.974 21.318 9.057 18.542C6.166 14.474 5.375 11.427 5.375 10.797C5.375 10.458 5.51 10.141 6.161 10.141H8.489C9.078 10.141 9.302 10.412 9.531 11.042C10.682 14.365 12.599 17.276 13.39 17.276C13.682 17.276 13.817 17.141 13.817 16.396V12.964C13.728 11.381 12.895 11.245 12.895 10.683C12.895 10.412 13.119 10.141 13.478 10.141H17.139C17.634 10.141 17.816 10.412 17.816 10.995V15.625C17.816 16.125 18.04 16.302 18.175 16.302C18.467 16.302 18.717 16.125 19.258 15.583C20.93 13.708 22.128 10.817 22.128 10.817C22.284 10.478 22.555 10.161 23.144 10.161H25.472C26.17 10.161 26.326 10.52 26.17 11.02C25.878 12.374 23.029 16.395 23.029 16.395C22.784 16.801 22.69 16.978 23.029 17.431C23.279 17.77 24.092 18.473 24.633 19.103C25.628 20.233 26.393 21.181 26.597 21.837C26.826 22.488 26.488 22.827 25.831 22.827L25.834 22.828Z" fill="white"/>
</svg>
